X:1
T:Pour passer le Rhône
T:Pour passer le Rhône
T:Provence
C:Provence
%%score [ 1 2 3 4 ]
L:1/8
M:2/4
K:C
V:1 treble 
V:2 treble 
V:3 treble 
V:4 treble nm="Autre basse"
V:1
 Ae e2 | d2 ee | Bd c2 | B2 cA | Ae e2 | d2 ee | Bd c2 | B2 A2 | AB cc | BB AE | AB c2 | B2 A2 | %12
 AB cc | BB AE | AB c2 | B2 A2 |] %16
V:2
 Ae/g/ fe | dc ge | B/c/d/e/ ec | BA cA | Ae/g/ fe | dc ge | B/c/d/e/ ec | B2 A2 | %8
 c/d/e/f/ e/g/f/e/ | d/c/B/c/ e2 | c/d/e/f/ ed/c/ | dB A2 | c/d/e/f/ e/g/f/e/ | d/c/B/c/ e2 | %14
 c/d/e/f/ ed/c/ | d/c/B/c/ A2 |] %16
V:3
 z2 A,2- | A,B, B,2- | B,D C2 | D2 A,2- | A,G, A,2- | A,B, B,2- | B,D C2 | D2 A,2 | E2 E2 | G2 G2 | %10
 A2 A2 | E2 C2 | E2 E2 | G2 G2 | A2 A2 | E4 |] %16
V:4
 A,3 C | D3 E | B,3 C | E2 A,2 | A,3 C | D3 E | B,3 C | E2 A,2 | E2 E2 | G2 G2 | A2 A2 | E2 E2 | %12
 E2 E2 | G2 G2 | A2 A2 | E4 |] %16

